icons/mobile/24/svg/arrow-counter-clockwise-24.svg

<svg width="24" height="24" viewBox="0 0 24 24" fill="none" xmlns="http://www.w3.org/2000/svg">
<path d="M10.927 2.18608C11.3229 1.79016 11.9999 2.07068 12.0002 2.62944V5.01615C12.1663 5.00658 12.3336 5.00053 12.5012 5.00053C17.747 5.00073 21.898 9.77877 20.8333 15.2095C20.1843 18.5184 17.5171 21.1854 14.2073 21.8326C9.12032 22.8286 4.60895 19.2499 4.05689 14.4839C3.99689 13.9619 4.40491 13.4996 4.93091 13.4996C5.36484 13.4996 5.74415 13.8177 5.79224 14.2486C6.16924 17.6506 9.08587 20.2986 12.5999 20.2486C16.1808 20.1966 19.1981 17.182 19.2502 13.6011C19.3062 9.83323 16.2571 6.74973 12.5012 6.74955C12.3333 6.74955 12.1661 6.75799 12.0002 6.77006V9.37065C12.0002 9.93061 11.323 10.2109 10.927 9.81498L7.55689 6.44487C7.31203 6.19995 7.31218 5.8022 7.55689 5.55619L10.927 2.18608Z" fill="black"/>
</svg>

<!-- This Source Code Form is subject to the terms of the Mozilla Public
   - License, v. 2.0. If a copy of the MPL was not distributed with this
   - file, You can obtain one at http://mozilla.org/MPL/2.0/. -->
<svg xmlns="http://www.w3.org/2000/svg" width="24" height="24" fill="none" viewBox="0 0 24 24">
    <path fill="#000" d="M10.927 2.186A.629.629 0 0 1 12 2.63v2.387q.25-.015.501-.015c5.246 0 9.397 4.778 8.332 10.209-.649 3.308-3.316 5.975-6.626 6.623a8.517 8.517 0 0 1-10.15-7.35.883.883 0 0 1 .874-.983.86.86 0 0 1 .861.749 6.76 6.76 0 0 0 6.808 6c3.58-.052 6.598-3.067 6.65-6.648.056-3.768-2.993-6.851-6.749-6.851q-.252.001-.5.02v2.6a.63.63 0 0 1-1.074.445l-3.37-3.37a.63.63 0 0 1 0-.889z" />
</svg>
